usr/share/icons/big-icons/symbolic/actions/media-random-albums-amarok.svg

<svg xmlns="http://www.w3.org/2000/svg" viewBox="0 0 16 16">
<defs id="defs3051">
<style id="current-color-scheme" type="text/css">
.ColorScheme-Text{color:#fcfcfc}
</style>
</defs>
<path d="M1 2v12h3v-1H3V3h10v3h1V2zm11 5v1h-2c-1.108 0-2 .892-2 2v1c0 .554-.446 1-1 1H5v1h2c1.108 0 2-.892 2-2v-1c0-.554.446-1 1-1h2v1l2-1.5zM5 8v1h2V8zm7 3v1h-2v1h2v1l2-1.5z" class="ColorScheme-Text" style="fill:currentColor;fill-opacity:1;stroke:none"/>
</svg>

<svg xmlns="http://www.w3.org/2000/svg" viewBox="0 0 16 16">
  <defs id="defs3051">
    <style type="text/css" id="current-color-scheme">
      .ColorScheme-Text {
        color:#eff0f1;
      }
      </style>
  </defs>
 <path style="fill:currentColor;fill-opacity:1;stroke:none" 
     d="M 1 2 L 1 14 L 4 14 L 4 13 L 3 13 L 3 3 L 13 3 L 13 6 L 14 6 L 14 2 L 1 2 z M 12 7 L 12 8 L 10 8 C 8.892 8 8 8.892 8 10 L 8 11 C 8 11.554 7.554 12 7 12 L 5 12 L 5 13 L 7 13 C 8.108 13 9 12.108 9 11 L 9 10 C 9 9.446 9.446 9 10 9 L 12 9 L 12 10 L 14 8.5 L 12 7 z M 5 8 L 5 9 L 7 9 L 7 8 L 5 8 z M 12 11 L 12 12 L 10 12 L 10 13 L 12 13 L 12 14 L 14 12.5 L 12 11 z "
     class="ColorScheme-Text"
     />
</svg>
